X:1
T:Benedicta et venerabilis
T:Costanzo Porta
T:O sacrum convivium
C:Costanzo Porta
%%score [ 1 2 3 4 ]
L:1/8
Q:1/4=168
M:2/2
K:F
V:1 tenor nm="Cantus" snm="C"
V:2 tenor nm="Altus" snm="A"
V:3 tenor nm="Tenor" snm="T"
V:4 bass nm="Bassus" snm="B"
V:1
 x8 | x8 |[M:4/2][K:treble-8] c16 | d16- | d8 A6 B2 | c4 G4 G4 A4- | A2 G2 F2 E2 D4 D4 | C16 | %8
w: ||O|_|* sa- *|* crum con- vi-|* * * * * vi-|um,|
 z8 c8 | c16 | d12 c4 | B8 A8 | G6 F2 E8 | z4 E8 E4 | F4 G4 A2 D2 E2 F2 | G2 D2 F6 E2 E2 DC | %16
w: in|quo|Chri- stus|su- mi-|tur, _ _|in quo|Chri- stus su- * * *||
 D4 D4 E8 | z16 | z16 | E8 G4 A4 | G4 A4 F4 G4 | A4 c8 c4 | c12 A4 | B8 A4 c4- | c4 c4 c8 | c8 d8 | %26
w: * mi- tur;|||re- co- li-|tur me- mo- ri-|a pas- si-|o- nis|e- jus, pas-|* si- o-|nis e-|
 c8 z8 | c8 A4 c4- | c2 B2 A2 G2 F6 G2 | A4 F4 B4 B4 | A8 c8 | A4 c6 BA B4 | A8 d6 d2 | c8 z8 | %34
w: jus;|mens im- ple-||* tur gra- ti-|a; et|fu- tu- * * *|rae glo- ri-|ae,|
 z16 | z4 A8 G4 | F4 A4 G6 G2 | F8 z8 | z16 | z4 A4 G4 F4 | A4 G6 F2 F4- | F4 E4 D4 F4- | %42
w: |et fu-|tu- rae glo- ri-|ae,||et fu- tu-|rae glo- * *|* ri- ae no-|
 F4 E4 C6 D2 | E4 F4 G8 | F4 F8 E4 | D8 C8 | z4 D2 E2 F2 G2 A4 | D4 d8 c4- | c2 BA B4 A8- | %49
w: * bis pi- *|* gnus da-|tur, Al- le-|lu- ia,|Al- * * * *|le- lu- ia,|_ _ _ _ no-|
 A4 G4 F4 A4 | G8 F8 | z16 | z4 F8 E4 | D4 F4 E8 | D8 A4 G4- | G4 F8 E4 | A12 G4 | %57
w: * bis pi- gnus|da- tur,||no- bis|pi- gnus da-|* tur. Al-|* * le-|lu- ia,|
 z4 A2 G2 A2 B2 c4 | A4 B8 A4 | d4 c4 B8 | !fermata!A16 |] %61
w: Al- * * * *|le- lu- ia,|Al- le- lu-|ia.|
V:2
 x8 | x8 |[M:4/2][K:treble-8] A16 | B16 | A8 F8 | G8 c8 | A12 F4 | G8 z8 | z8 A8 | %9
w: ||O|_|sa- *|crum con-|vi- vi-|um,|in|
 G4 F2 E2 F2 G2 A4- | A4 B8 A4- | A2 GF G4 F4 E2 D2 | E4 E4 G4 E4 | E8 c6 B2 | A2 GF B4 A8 | %15
w: quo Chri- * * * *|* * stus|_ _ _ _ su- * *|* mi- tur, in|quo Chri- *|* * * * stus|
 z4 d6 c2 c4- | c4 =B4 c8- | c16 | z16 | z16 | z16 | z8 G8 | G4 A4 G4 z2 A2 | F4 G4 A8 | G8 G4 G4 | %25
w: su- * *|* mi- tur;|_||||re-|co- li- tur me-|mo- ri- a|pas- si- o-|
 E4 F8 E2 D2 | E4 F4 E8 | z8 c8 | A4 c6 B2 A2 G2 | F4 A4 G4 G4 | F16 | z16 | F16 | F8 c8 | %34
w: nis e- * *|* * jus;|mens|im- ple- * * *|* tur gra- ti-|a,||mens|im- ple-|
 c8 d6 d2 | c4 c4 c8 | A8 d6 B2 | c8 z8 | c12 B4 | A4 c4 d6 c2 | d4 c4 A8 | z8 z4 A4- | %42
w: tur gra- ti-|a, im- ple-|tur, tur gra-|a;|et fu-|tu- rae glo- *|* ri- ae|no-|
 A4 G4 F4 A4 | G4 F8 E4 | z4 A8 G4 | A4 G2 F2 c6 G2 | B4 A6 B2 c4 | F16 | z4 D2 E2 F2 G2 A4 | %49
w: * bis pi- gnus|da- * tur,|Al- le-|lu- * * * *||ia,|Al- * * * *|
 D4 d8 c4 | B8 z8 | z4 B8 A4 | G4 B4 A8 | G4 F2 G2 A2 B2 c2 C2 | F12 E4 | D8 C6 D2 | E2 DC D4 C8 | %57
w: le- lu- *|ia,|no- bis|pi- gnus da-|tur. Al- * * * * *|* le-|lu- * *|* * * * ia,|
 z4 D2 E2 F2 G2 A4 | D4 d8 c4 | B4 c4 d8 | c16 |] %61
w: Al- * * * *|le- lu- ia,|Al- le- lu-|ia.|
V:3
 x8 | x8 |[M:4/2][K:treble-8] z16 | F16- | F16 | E8 E4 E4 | F2 E2 D2 E2 F2 G2 A2 B2 | c6 BA G4 G4 | %8
w: |||O|_|sa- crum con-|vi- * * * * * * *|* * * * vi-|
 F8 z4 F4 | E4 A2 G2 F2 E2 F4- | F2 D2 G4 F8 | D4 E4 F8 | z8 z4 G4- | G4 G4 A8- | A4 G4 F4 E4 | %15
w: um, in|quo Chri- * * * *|* * * stus|su- mi- tur,|in|_ quo Chri-|* stus su- mi-|
 D8 z8 | z8 z4 G4 | G4 A4 G4 A4 | F4 G4 A8 | G8 E4 E4- | E4 C4 D8 | E16 | z16 | z8 z4 F4- | %24
w: tur;|re-|co- li- tur me-|mo- ri- a|pas- si- o-|* nis e-|jus,||pas-|
 F4 E4 E8 | G4 A6 GF G4 | A8 z8 | F16 | F8 c8 | c8 d6 B2 | c4 c4 A4 c4- | c2 B2 A2 G2 F4 D4 | %32
w: * si- o-|nis e- * * *|jus;|mens|im- ple-|tur gra- ti-|a, mens im- ple-|* * * * * tur,|
 D4 F4 D2 E2 F2 G2 | A2 B2 c4 A4 F4- | F2 E2 A8 G4 | A8 z8 | c12 B4 | A4 c4 B6 AG | %38
w: mens im- ple- * * *|* * * tur gra-|* * * ti-|a;|et fu-|tu- rae glo- * *|
 A2 B2 c2 A2 d6 B2 | c8 B4 A4 | F4 E4 F6 G2 | A2 B2 c4 F8 | z8 z4 c4- | c2 G2 A2 B2 c8 | c8 c8- | %45
w: * * * * * ri-|ae no- bis|pi- gnus da- *|* * * tur,|da-||tur, Al-|
 c4 B4 A4 G4 | F8 z8 | z4 D2 E2 F2 G2 A4 | D4 d8 c4 | B8 z8 | d12 c4 | B4 d4 c8 | %52
w: * le- lu- *|ia,|Al- * * * *|le- lu- *|ia,|no- bis|pi- gnus da-|
 B4 F2 G2 A2 B2 c2 Bc | d4 A4 c2 BA G2 A2 | B2 c2 d4 c4 c4 | B4 A8 G4 | z4 F2 G2 A2 B2 c4 | %57
w: tur. Al- * * * * * *|* le- lu- * * * *|* * * ia, Al-|le- lu- ia,|Al- * * * *|
 A4 F8 E4 | F16- | F16- | F16 |] %61
w: le- lu- *|ia.|_||
V:4
 x8 | x8 |[M:4/2] F,16 | B,,8 C,8 | D,16 | C,8 C,4 C,4 | D,6 C,2 D,2 E,2 F,4- | %7
w: ||O|_ _||sa- crum con-|vi- * * * *|
 F,4 E,2 D,2 E,4 E,4 | F,16 | z16 | z16 | z16 | C,16 | C,16 | D,12 C,4 | B,,8 A,,8 | G,,8 z4 C,4 | %17
w: * * * * vi-|um,||||in|quo|Chri- stus|su- mi-|tur; re-|
 E,4 F,4 E,4 F,4 | D,4 E,4 F,4 C,4- | C,4 C,4 C,8- | C,4 A,,4 B,,8 | A,,8 z4 C,4 | %22
w: co- li- tur me-|mo- ri- a pas-|* si- o-|* nis e-|jus, re-|
 E,4 F,4 E,4 F,4 | D,4 E,4 F,8 | C,12 C,4 | C,4 A,,4 B,,8 | A,,16 | z16 | z16 | z16 | z16 | %31
w: co- li- tur me-|mo- ri- a|pas- si-|o- nis e-|jus;|||||
 F,8 D,4 F,4- | F,2 E,2 D,2 C,2 B,,8 | A,,4 A,4 F,4 A,4- | A,2 G,2 F,2 E,2 D,2 C,2 B,,4 | %35
w: mens im- ple-||tur, mens im- ple-||
 F,,4 F,8 E,4 | F,8 z8 | z4 A,8 G,4 | F,4 A,4 G,6 G,2 | F,8 z8 | z8 D,8- | D,4 C,4 B,,4 D,4 | %42
w: tur gra- ti-|a;|et fu-|tu- rae glo- ri-|ae|no-|* bis pi- gnus|
 C,6 B,,2 A,,4 G,,2 F,,2 | C,8 C,8 | z4 F,,2 G,,2 A,,2 B,,2 C,4 | F,,4 F,8 E,4 | D,8 z8 | %47
w: da- * * * *|* tur,|Al- * * * *|le- lu- *|ia,|
 B,,12 A,,4 | G,,8 F,,8 | z4 B,,2 C,2 D,2 E,2 F,4 | B,,4 B,8 A,4 | G,8 z8 | z4 D,8 C,4 | %53
w: Al- le-|lu- ia,|Al- * * * *|le- lu- *|ia,|no- bis|
 B,,4 D,4 C,8 | B,,8 z8 | z4 F,,2 G,,2 A,,2 B,,2 C,4- | C,2 F,,2 F,8 E,4 | D,12 C,4 | %58
w: pi- gnus da-|tur.|Al- * * * *|* * * le-|lu- ia,|
 z4 B,,2 C,2 D,2 E,2 F,2 F,,2 | B,,4 A,,4 B,,8 | F,,16 |] %61
w: Al- * * * * *|* le- lu-|ia.|

